X:12031
T:Lunch in the Pub
T:Lunch at the Pub
R:March
C:Pete Lockwood 1986
Z:Paul Hardy's Session Tunebook 2015 (see www.paulhardy.net). Creative Commons cc by-nc-sa licenced.
M:4/4
L:1/8
Q:1/4=160
K:DMix
"D"DEFG A2 d2|"Am"c2 BA "G"GA B2|"D"A2 F2 DE F2|"C"G2 E2 "Am"E2 FE|
"D"DEFG A2 d2|"Am"c2 BA "G"GA B2|"D"A2 F2 DE F2|"C"G2 E2 "D"D2 FE:|
|:"D"D2 d4 d2|"Am"c2 c2 "G"B2 G2|"D"D2 d4 d2|"Am"c2 c2 "G"B4|
"D"D2 d4 d2|"Am"c2 BA "G"GA B2|"D"A2 F2 DE F2|"C"G2 E2 "D"D4:|

